X: 37395
T: Sleepy Body
R: jig
M: 6/8
K: Gmajor
|:d|Bd2 Bg2|dcB ABc|Bcd efg|d3 G2 c|
Bcd B g2|dcB ABc|Bcd efg|d3 G2:|
|:(e/f/)|(~gfe) dcB|cdB A2e/f/|(~gfe) dB/c/d|g3 (d2e/f/)|
gfe dcB|{B}(c>dc/B/) A2 B|Bcd efg|d3 G2:|

